X: 1
T: Tsu der Khupe Geyn tune 4   [Am]
O: Joel Rubin Jewish Music Ensemble
S: email from Steve Rauch
D: Beregovski's Khasene
Z: 2020 Steve Rauch
Z: 2020 John Chambers <jc:trillian.mit.edu>
M: 2/4
L: 1/8
K: Am
E AB ||\
"Am"c2 B2 | "(E7)"c2 B2 | "Am"A4- | AE AB |\
ce Be | "(E7)"c2 B2 | "Am"A4- | AA, CE ||\
"F"AA A2- | A_B/A/ GF |
"C"EE E2- | EF/E/ DC |\
G2 C2 | "Dm"DE/D/ "(E7)"CB, | "Am"A,4 | "C"zG cd ||\
"C"^de e2 | ef/e/ dc | ^de e2 | ef/e/ dc |
ef/e/ dc | "(E7)"e2 z2 ||\
"Am"c2 d2 | "(E7)"e>d cB | "Am"A2 a2 | e2 c2 |\
c2 d2 | "(E7)"e>d cB | "Am"A4- | Ae/e/ ee ||
|:\
"E"e e3- | ee ^ga | "E"b b3- | ba c'/b/a |\
"E"^g2 a2 | ba c'b |1 "Am"a3 e' | ^d'c' ba :|2 "Am"a4- | a |]


